X: 17102
T: Heel And Toe, The
R: polka
M: 2/4
K: Dmajor
A>B A>B|Adf2|ee/f/ gc|def2|
A>B A>B|Adf2|ee/f/ gc|edd2:|
|:dc B>c|BAA2|ag Bc|def2|
dc B>c|BAA2|ag Bc|1 edd2:|2 ed d||

